X:1782
T:"The Ace and the Duce of Pipering" (longdance) (1st Setting) 1781
C:After  Mr.Cronin
B:O'Neill's Music Of Ireland (The 1850) Lyon & Healy, Chicago, 1903 edition
Z:FROM O'NEILL'S TO NOTEWORTHY, FROM NOTEWORTHY TO ABC, MIDI AND .TXT BY VINCE
BRENNAN July 2003 (HTTP://WWW.SOSYOURMOM.COM)
I:abc2nwc
M:C|
L:1/8
K:G
(dc)|B2cA (BG)cA|BdcA B2(AG)|d2ec d2ec|dfec dcBA|
e2fd (ed)cA|Adde dcBA|BGcA B2(AG)|FGAB cBcA|
G2(ge) =fdcA|FGAB {d}cAFG|.A(G{A}GF) G2(FG)|.A(G{A}GF) G2:|
|:(GF)|G2=f2e2f2|G2(=fg) fdcA|G2g2f2g2|d2(fa) gfdc|
A2=f2e2f2|d^cde fefg|agfa gfdc|BGcA B2(AG)|
G2(ge) =fdcA|FGAB {d}cAFG|.A(G{A}GF) G2(FG)|.A(G{A}GF) G2:|
